X: 32583
T: Planxty Johnston
R: jig
M: 6/8
K: Gmajor
G2G GFE|D2C B,2D|A,2D G,2G|{G}F2E D2d|
B2A G2A|B2c d2e|d2B G2A|F2G A2B|
AFD AFD|E2F G2A|G2G {B}AGF|G3 G2z:|
dBc d2B|F2G Aef|g2e f2d|e2c ABc|
d2d ded|B2B BcB|GAG F2G|AFD DEF|
GFE DCB,|C3 zzz|A2A ABA|AFD D2z|
BdB cec|BdB cAc|BGB AFD|G3 G2z:|

